icons/media/pause.svg

<svg width="32" height="32" viewBox="0 0 32 32" fill="none" xmlns="http://www.w3.org/2000/svg">
<path fill-rule="evenodd" clip-rule="evenodd" d="M8 4C6.89543 4 6 4.89543 6 6V26C6 27.1046 6.89543 28 8 28H12C13.1046 28 14 27.1046 14 26V6C14 4.89543 13.1046 4 12 4H8ZM8 6L12 6V26H8V6ZM20 4C18.8954 4 18 4.89543 18 6V26C18 27.1046 18.8954 28 20 28H24C25.1046 28 26 27.1046 26 26V6C26 4.89543 25.1046 4 24 4H20ZM20 6L24 6V26H20V6Z" fill="black"/>
</svg>

<svg width="32" height="32" viewBox="0 0 32 32" xmlns="http://www.w3.org/2000/svg">
    <path fill-rule="evenodd" d="M8 4a2 2 0 00-2 2v20a2 2 0 002 2h4a2 2 0 002-2V6a2 2 0 00-2-2H8zm0 2h4v20H8V6zm12-2a2 2 0 00-2 2v20a2 2 0 002 2h4a2 2 0 002-2V6a2 2 0 00-2-2h-4zm0 2h4v20h-4V6z"/>
</svg>
